dist/img/metro.svg

<svg width="144" height="38" viewBox="0 0 144 38" fill="none" xmlns="http://www.w3.org/2000/svg">
<g clip-path="url(#clip0_1101_894)">
<path d="M0 0.00195312H144L143.99 38.002H0V0.00195312Z" fill="#004282"/>
<path d="M24.7189 30.6933L29.6905 16.0061V30.6933H37.1106V7.30713H27.093L22.267 19.0035L17.4444 7.30713H7.42334V30.6933H14.8435V16.0061L19.8591 30.6933H24.7189Z" fill="#FFE600"/>
<path d="M102.432 15.5368C102.432 16.0436 102.307 16.487 101.382 16.487H92.7868V11.8991H101.396C102.442 11.8991 102.432 12.576 102.432 12.9961V15.5368ZM104.488 21.605C106.801 21.4217 109.114 19.8712 109.114 17.3239V11.5524C108.843 8.91169 106.835 7.49132 104.454 7.30127H85.3599V30.6941H92.7834V21.605H95.7331L100.559 30.6941H109.093L103.35 21.605H104.488Z" fill="#FFE600"/>
<path d="M59.3849 11.915V7.30713H40.0811V30.6933L59.6389 30.6866L59.6457 26.0921H47.5181L47.5215 21.0841H59.3849V16.4895H47.5215V11.915H59.3849Z" fill="#FFE600"/>
<path d="M68.6608 11.915H61.6064V7.30713H83.1353V11.915H76.0809V30.6933H68.6608V11.915Z" fill="#FFE600"/>
<path d="M129.678 25.015C129.644 25.2784 129.542 25.9752 128.625 26.0653H120.568C119.653 25.9752 119.481 25.2784 119.45 25.015V12.7718C119.484 12.505 119.613 11.9449 120.531 11.8549H128.635C129.553 11.9449 129.651 12.505 129.685 12.7718V25.015H129.678ZM132.468 7.24365H116.66C114.286 7.4337 112.281 8.61735 112.006 11.2714V26.432C112.281 29.0861 114.282 30.4898 116.66 30.6798H132.468C134.842 30.4931 136.847 29.0861 137.115 26.432V11.268C136.847 8.61735 134.846 7.43037 132.468 7.24365Z" fill="#FFE600"/>
</g>
<defs>
<clipPath id="clip0_1101_894">
<rect width="144" height="38" fill="white"/>
</clipPath>
</defs>
</svg>

<svg width="144" height="38" viewBox="0 0 144 38" fill="none" xmlns="http://www.w3.org/2000/svg"><g clip-path="url(#clip0_1101_894)"><path d="M0 .002h144l-.01 38H0v-38z" fill="#004282"/><path d="M24.719 30.693l4.971-14.687v14.687h7.42V7.307H27.094l-4.826 11.696-4.823-11.696H7.424v23.386h7.42V16.006l5.015 14.687h4.86zm77.713-15.156c0 .507-.125.95-1.05.95h-8.595v-4.588h8.609c1.046 0 1.036.677 1.036 1.097v2.54zm2.056 6.068c2.313-.183 4.626-1.734 4.626-4.281v-5.772c-.271-2.64-2.279-4.06-4.66-4.25H85.36v23.392h7.423v-9.089h2.95l4.826 9.09h8.534l-5.743-9.09h1.138zm-45.103-9.69V7.307H40.08v23.386l19.558-.006.007-4.595H47.518l.004-5.008h11.863V16.49H47.522v-4.574h11.863zm9.275 0h-7.054V7.307h21.53v4.608H76.08v18.778h-7.42V11.915zm61.018 13.1c-.034.263-.136.96-1.053 1.05h-8.057c-.915-.09-1.087-.787-1.118-1.05V12.772c.034-.267.163-.827 1.081-.917h8.104c.918.09 1.016.65 1.05.917v12.243h-.007zm2.79-17.771H116.66c-2.374.19-4.379 1.373-4.654 4.027v15.161c.275 2.654 2.276 4.058 4.654 4.248h15.808c2.374-.187 4.379-1.594 4.647-4.248V11.268c-.268-2.65-2.269-3.838-4.647-4.024z" fill="#FFE600"/></g><defs><clipPath id="clip0_1101_894"><path fill="#fff" d="M0 0h144v38H0z"/></clipPath></defs></svg>
